X:002 
T:Aghavas Reel 2, The 
F:file ID: cre.5/002aghav2
B:CRE5.145 (Ril Achadh an Measa 2)
M:4/4
Q:180
R:reel
K:G
DGBG dGBG|dGBG AE~E2|DGBG dGBG|dBAc BG~G2|
DGBG dGBG|dGBG AE~E2|DGBG dGAB/c/|dBAc AGGB||
dg~g2 dgbg|agbg ageg|dg~g2 dgbg|agab g3e|
dg~g2 dgbg|agbg agef|ge~e2 dBB2|dBAc BGG2|]

%%%

